app/images/icon/search-black.svg

<svg width="21" height="20" viewBox="0 0 21 20" fill="none" xmlns="http://www.w3.org/2000/svg">
<path d="M9.02081 16.4718C4.47604 16.4718 0.778625 12.7772 0.778625 8.23588C0.778625 3.69459 4.47604 0 9.02081 0C13.5656 0 17.263 3.69459 17.263 8.23588C17.263 12.7772 13.5656 16.4718 9.02081 16.4718ZM9.02081 1.5613C5.33761 1.5613 2.34112 4.5555 2.34112 8.23588C2.34112 11.9163 5.33761 14.9105 9.02081 14.9105C12.704 14.9105 15.7005 11.9163 15.7005 8.23588C15.7005 4.5555 12.704 1.5613 9.02081 1.5613ZM20.5498 19.7713C20.8549 19.4665 20.8549 18.9722 20.5498 18.6673L17.0537 15.1739C16.7486 14.869 16.2539 14.869 15.9488 15.1739C15.6438 15.4788 15.6438 15.9731 15.9488 16.2779L19.4449 19.7713C19.5975 19.9238 19.7974 20 19.9974 20C20.1974 20 20.3972 19.9238 20.5498 19.7713Z" fill="#31352B"/>
</svg>

<svg width="21" height="20" fill="none" xmlns="http://www.w3.org/2000/svg"><path d="M9.02 16.472c-4.543 0-8.24-3.695-8.24-8.236S4.476 0 9.02 0c4.545 0 8.242 3.695 8.242 8.236s-3.697 8.236-8.242 8.236zm0-14.91c-3.682 0-6.679 2.994-6.679 6.674s2.997 6.675 6.68 6.675 6.68-2.995 6.68-6.675c0-3.68-2.997-6.675-6.68-6.675zm11.53 18.21a.78.78 0 000-1.105l-3.496-3.493a.782.782 0 00-1.105 1.104l3.496 3.493a.779.779 0 001.105 0z" fill="#31352B"/></svg>
